findly-builder/apps/searchassist/src/assets/images/pricing-plan/new-plan-pricing-img/standard-plan-icon.svg

<svg width="14" height="14" viewBox="0 0 14 14" fill="none" xmlns="http://www.w3.org/2000/svg">
<path d="M8.99956 6.33375V6.34042M2.44823 4.58575C2.15583 4.36102 1.93126 4.05982 1.79933 3.71544C1.66741 3.37106 1.63328 2.99691 1.7007 2.63434C1.76813 2.27177 1.93449 1.9349 2.1814 1.66097C2.4283 1.38704 2.74614 1.18671 3.09978 1.08212C3.45343 0.977528 3.8291 0.972755 4.18529 1.06832C4.54147 1.16389 4.8643 1.35608 5.11809 1.62366C5.37187 1.89123 5.54674 2.22376 5.62335 2.58449C5.69997 2.94523 5.67536 3.32013 5.55223 3.66775" stroke="#44474C" stroke-width="1.5" stroke-linecap="round" stroke-linejoin="round"/>
<path d="M9.66633 1.66797V4.2033C10.4914 4.68072 11.1196 5.43627 11.4383 6.33464H12.3323C12.5091 6.33464 12.6787 6.40487 12.8037 6.5299C12.9288 6.65492 12.999 6.82449 12.999 7.0013V8.33464C12.999 8.51145 12.9288 8.68102 12.8037 8.80604C12.6787 8.93106 12.5091 9.0013 12.3323 9.0013H11.4377C11.2137 9.63463 10.833 10.2013 10.3323 10.65V12.0013C10.3323 12.2665 10.227 12.5209 10.0394 12.7084C9.85191 12.8959 9.59755 13.0013 9.33233 13.0013C9.06712 13.0013 8.81276 12.8959 8.62523 12.7084C8.43769 12.5209 8.33233 12.2665 8.33233 12.0013V11.6126C8.11203 11.6495 7.88904 11.668 7.66567 11.668H4.999C4.77563 11.668 4.55264 11.6495 4.33233 11.6126V12.0013C4.33233 12.2665 4.22698 12.5209 4.03944 12.7084C3.85191 12.8959 3.59755 13.0013 3.33234 13.0013C3.06712 13.0013 2.81276 12.8959 2.62523 12.7084C2.43769 12.5209 2.33234 12.2665 2.33234 12.0013V10.668L2.333 10.65C1.72902 10.11 1.30324 9.39932 1.11203 8.61204C0.920814 7.82476 0.973173 6.99797 1.26218 6.24109C1.55118 5.48422 2.0632 4.83295 2.73048 4.37347C3.39776 3.91399 4.18883 3.66797 4.999 3.66797H6.66567L9.66567 1.66797H9.66633Z" stroke="#44474C" stroke-width="1.5" stroke-linecap="round" stroke-linejoin="round"/>
</svg>

<svg width="14" height="14" fill="none" xmlns="http://www.w3.org/2000/svg"><path d="M9 6.334v.006M2.448 4.586a2 2 0 1 1 3.104-.918" stroke="#44474C" stroke-width="1.5" stroke-linecap="round" stroke-linejoin="round"/><path d="M9.666 1.668v2.535a4.012 4.012 0 0 1 1.772 2.132h.894A.667.667 0 0 1 13 7v1.334a.666.666 0 0 1-.667.666h-.894a4.01 4.01 0 0 1-1.106 1.649V12a1 1 0 1 1-2 0v-.388c-.22.037-.443.055-.666.055H4.999c-.223 0-.446-.018-.667-.055V12a1 1 0 1 1-2 0v-1.333l.001-.018a4 4 0 0 1 2.666-6.982h1.667l3-2h0Z" stroke="#44474C" stroke-width="1.5" stroke-linecap="round" stroke-linejoin="round"/></svg>
